favicon.svg

<svg aria-hidden="true" style="position: absolute; width: 0; height: 0; overflow: hidden;" version="1.1" xmlns="http://www.w3.org/2000/svg" xmlns:xlink="http://www.w3.org/1999/xlink">
<defs>
<symbol id="icon-logo" viewBox="0 0 35 32">
<path fill="#ecd979" style="fill: var(--color1, #ecd979)" d="M15.392 11.53h-1.098v-1.113h1.098v1.113z"></path>
<path fill="#ecd979" style="fill: var(--color1, #ecd979)" d="M14.294 11.53h-1.098v-1.113h1.098v1.113z"></path>
<path fill="#ecd979" style="fill: var(--color1, #ecd979)" d="M8.804 11.53h-1.098v-1.113h1.098v1.113z"></path>
<path fill="#ecd979" style="fill: var(--color1, #ecd979)" d="M7.707 11.53h-1.098v-1.113h1.098v1.113z"></path>
<path fill="#ecd979" style="fill: var(--color1, #ecd979)" d="M6.609 11.53h-1.098v-1.113h1.098v1.113z"></path>
<path fill="#ecd979" style="fill: var(--color1, #ecd979)" d="M28.566 10.417h-1.098v-1.113h1.098v1.113z"></path>
<path fill="#ecd979" style="fill: var(--color1, #ecd979)" d="M27.468 10.417h-1.098v-1.113h1.098v1.113z"></path>
<path fill="#ecd979" style="fill: var(--color1, #ecd979)" d="M19.783 10.417h-1.098v-1.113h1.098v1.113z"></path>
<path fill="#ecd979" style="fill: var(--color1, #ecd979)" d="M18.685 10.417h-1.098v-1.113h1.098v1.113z"></path>
<path fill="#ecd979" style="fill: var(--color1, #ecd979)" d="M16.49 10.417h-1.098v-1.113h1.098v1.113z"></path>
<path fill="#ecd979" style="fill: var(--color1, #ecd979)" d="M15.392 10.417h-1.098v-1.113h1.098v1.113z"></path>
<path fill="#ecd979" style="fill: var(--color1, #ecd979)" d="M7.707 10.417h-1.098v-1.113h1.098v1.113z"></path>
<path fill="#ecd979" style="fill: var(--color1, #ecd979)" d="M6.609 10.417h-1.098v-1.113h1.098v1.113z"></path>
<path fill="#ecd979" style="fill: var(--color1, #ecd979)" d="M28.566 9.304h-1.098v-1.113h1.098v1.113z"></path>
<path fill="#ecd979" style="fill: var(--color1, #ecd979)" d="M18.685 9.304h-1.098v-1.113h1.098v1.113z"></path>
<path fill="#ecd979" style="fill: var(--color1, #ecd979)" d="M16.49 9.304h-1.098v-1.113h1.098v1.113z"></path>
<path fill="#ecd979" style="fill: var(--color1, #ecd979)" d="M6.609 9.304h-1.098v-1.113h1.098v1.113z"></path>
<path fill="#ecd979" style="fill: var(--color1, #ecd979)" d="M34.055 8.191h-1.098v-1.113h1.098v1.113z"></path>
<path fill="#ecd979" style="fill: var(--color1, #ecd979)" d="M1.12 8.191h-1.098v-1.113h1.098v1.113z"></path>
<path fill="#ecd979" style="fill: var(--color1, #ecd979)" d="M34.055 7.078h-1.098v-1.113h1.098v1.113z"></path>
<path fill="#ecd979" style="fill: var(--color1, #ecd979)" d="M32.957 7.078h-1.098v-1.113h1.098v1.113z"></path>
<path fill="#ecd979" style="fill: var(--color1, #ecd979)" d="M23.076 7.078h-1.098v-1.113h1.098v1.113z"></path>
<path fill="#ecd979" style="fill: var(--color1, #ecd979)" d="M21.979 7.078h-1.098v-1.113h1.098v1.113z"></path>
<path fill="#ecd979" style="fill: var(--color1, #ecd979)" d="M20.881 7.078h-1.098v-1.113h1.098v1.113z"></path>
<path fill="#ecd979" style="fill: var(--color1, #ecd979)" d="M14.294 7.078h-1.098v-1.113h1.098v1.113z"></path>
<path fill="#ecd979" style="fill: var(--color1, #ecd979)" d="M13.196 7.078h-1.098v-1.113h1.098v1.113z"></path>
<path fill="#ecd979" style="fill: var(--color1, #ecd979)" d="M12.098 7.078h-1.098v-1.113h1.098v1.113z"></path>
<path fill="#ecd979" style="fill: var(--color1, #ecd979)" d="M2.217 7.078h-1.098v-1.113h1.098v1.113z"></path>
<path fill="#ecd979" style="fill: var(--color1, #ecd979)" d="M1.12 7.078h-1.098v-1.113h1.098v1.113z"></path>
<path fill="#ecd979" style="fill: var(--color1, #ecd979)" d="M34.055 5.965h-1.098v-1.113h1.098v1.113z"></path>
<path fill="#ecd979" style="fill: var(--color1, #ecd979)" d="M32.957 5.965h-1.098v-1.113h1.098v1.113z"></path>
<path fill="#ecd979" style="fill: var(--color1, #ecd979)" d="M31.859 5.965h-1.098v-1.113h1.098v1.113z"></path>
<path fill="#ecd979" style="fill: var(--color1, #ecd979)" d="M24.174 5.965h-1.098v-1.113h1.098v1.113z"></path>
<path fill="#ecd979" style="fill: var(--color1, #ecd979)" d="M23.076 5.965h-1.098v-1.113h1.098v1.113z"></path>
<path fill="#ecd979" style="fill: var(--color1, #ecd979)" d="M21.979 5.965h-1.098v-1.113h1.098v1.113z"></path>
<path fill="#ecd979" style="fill: var(--color1, #ecd979)" d="M18.685 5.965h-1.098v-1.113h1.098v1.113z"></path>
<path fill="#ecd979" style="fill: var(--color1, #ecd979)" d="M16.49 5.965h-1.098v-1.113h1.098v1.113z"></path>
<path fill="#ecd979" style="fill: var(--color1, #ecd979)" d="M13.196 5.965h-1.098v-1.113h1.098v1.113z"></path>
<path fill="#ecd979" style="fill: var(--color1, #ecd979)" d="M12.098 5.965h-1.098v-1.113h1.098v1.113z"></path>
<path fill="#ecd979" style="fill: var(--color1, #ecd979)" d="M11 5.965h-1.098v-1.113h1.098v1.113z"></path>
<path fill="#ecd979" style="fill: var(--color1, #ecd979)" d="M3.315 5.965h-1.098v-1.113h1.098v1.113z"></path>
<path fill="#ecd979" style="fill: var(--color1, #ecd979)" d="M2.217 5.965h-1.098v-1.113h1.098v1.113z"></path>
<path fill="#ecd979" style="fill: var(--color1, #ecd979)" d="M1.12 5.965h-1.098v-1.113h1.098v1.113z"></path>
<path fill="#ecd979" style="fill: var(--color1, #ecd979)" d="M32.957 4.852h-1.098v-1.113h1.098v1.113z"></path>
<path fill="#ecd979" style="fill: var(--color1, #ecd979)" d="M31.859 4.852h-1.098v-1.113h1.098v1.113z"></path>
<path fill="#ecd979" style="fill: var(--color1, #ecd979)" d="M30.762 4.852h-1.098v-1.113h1.098v1.113z"></path>
<path fill="#ecd979" style="fill: var(--color1, #ecd979)" d="M25.272 4.852h-1.098v-1.113h1.098v1.113z"></path>
<path fill="#ecd979" style="fill: var(--color1, #ecd979)" d="M24.174 4.852h-1.098v-1.113h1.098v1.113z"></path>
<path fill="#ecd979" style="fill: var(--color1, #ecd979)" d="M23.076 4.852h-1.098v-1.113h1.098v1.113z"></path>
<path fill="#ecd979" style="fill: var(--color1, #ecd979)" d="M19.783 4.852h-1.098v-1.113h1.098v1.113z"></path>
<path fill="#ecd979" style="fill: var(--color1, #ecd979)" d="M18.685 4.852h-1.098v-1.113h1.098v1.113z"></path>
<path fill="#ecd979" style="fill: var(--color1, #ecd979)" d="M16.49 4.852h-1.098v-1.113h1.098v1.113z"></path>
<path fill="#ecd979" style="fill: var(--color1, #ecd979)" d="M15.392 4.852h-1.098v-1.113h1.098v1.113z"></path>
<path fill="#ecd979" style="fill: var(--color1, #ecd979)" d="M12.098 4.852h-1.098v-1.113h1.098v1.113z"></path>
<path fill="#ecd979" style="fill: var(--color1, #ecd979)" d="M11 4.852h-1.098v-1.113h1.098v1.113z"></path>
<path fill="#ecd979" style="fill: var(--color1, #ecd979)" d="M9.903 4.852h-1.098v-1.113h1.098v1.113z"></path>
<path fill="#ecd979" style="fill: var(--color1, #ecd979)" d="M4.413 4.852h-1.098v-1.113h1.098v1.113z"></path>
<path fill="#ecd979" style="fill: var(--color1, #ecd979)" d="M3.315 4.852h-1.098v-1.113h1.098v1.113z"></path>
<path fill="#ecd979" style="fill: var(--color1, #ecd979)" d="M2.217 4.852h-1.098v-1.113h1.098v1.113z"></path>
<path fill="#ecd979" style="fill: var(--color1, #ecd979)" d="M31.859 3.739h-1.098v-1.113h1.098v1.113z"></path>
<path fill="#ecd979" style="fill: var(--color1, #ecd979)" d="M30.762 3.739h-1.098v-1.113h1.098v1.113z"></path>
<path fill="#ecd979" style="fill: var(--color1, #ecd979)" d="M29.664 3.739h-1.098v-1.113h1.098v1.113z"></path>
<path fill="#ecd979" style="fill: var(--color1, #ecd979)" d="M20.881 3.739h-1.098v-1.113h1.098v1.113z"></path>
<path fill="#ecd979" style="fill: var(--color1, #ecd979)" d="M19.783 3.739h-1.098v-1.113h1.098v1.113z"></path>
<path fill="#ecd979" style="fill: var(--color1, #ecd979)" d="M18.685 3.739h-1.098v-1.113h1.098v1.113z"></path>
<path fill="#ecd979" style="fill: var(--color1, #ecd979)" d="M16.49 3.739h-1.098v-1.113h1.098v1.113z"></path>
<path fill="#ecd979" style="fill: var(--color1, #ecd979)" d="M15.392 3.739h-1.098v-1.113h1.098v1.113z"></path>
<path fill="#ecd979" style="fill: var(--color1, #ecd979)" d="M14.294 3.739h-1.098v-1.113h1.098v1.113z"></path>
<path fill="#ecd979" style="fill: var(--color1, #ecd979)" d="M5.511 3.739h-1.098v-1.113h1.098v1.113z"></path>
<path fill="#ecd979" style="fill: var(--color1, #ecd979)" d="M4.413 3.739h-1.098v-1.113h1.098v1.113z"></path>
<path fill="#ecd979" style="fill: var(--color1, #ecd979)" d="M3.315 3.739h-1.098v-1.113h1.098v1.113z"></path>
<path fill="#ecd979" style="fill: var(--color1, #ecd979)" d="M35.153 2.626h-1.098v-1.113h1.098v1.113z"></path>
<path fill="#ecd979" style="fill: var(--color1, #ecd979)" d="M30.762 2.626h-1.098v-1.113h1.098v1.113z"></path>
<path fill="#ecd979" style="fill: var(--color1, #ecd979)" d="M29.664 2.626h-1.098v-1.113h1.098v1.113z"></path>
<path fill="#ecd979" style="fill: var(--color1, #ecd979)" d="M28.566 2.626h-1.098v-1.113h1.098v1.113z"></path>
<path fill="#ecd979" style="fill: var(--color1, #ecd979)" d="M20.881 2.626h-1.098v-1.113h1.098v1.113z"></path>
<path fill="#ecd979" style="fill: var(--color1, #ecd979)" d="M19.783 2.626h-1.098v-1.113h1.098v1.113z"></path>
<path fill="#ecd979" style="fill: var(--color1, #ecd979)" d="M15.392 2.626h-1.098v-1.113h1.098v1.113z"></path>
<path fill="#ecd979" style="fill: var(--color1, #ecd979)" d="M14.294 2.626h-1.098v-1.113h1.098v1.113z"></path>
<path fill="#ecd979" style="fill: var(--color1, #ecd979)" d="M6.609 2.626h-1.098v-1.113h1.098v1.113z"></path>
<path fill="#ecd979" style="fill: var(--color1, #ecd979)" d="M5.511 2.626h-1.098v-1.113h1.098v1.113z"></path>
<path fill="#ecd979" style="fill: var(--color1, #ecd979)" d="M4.413 2.626h-1.098v-1.113h1.098v1.113z"></path>
<path fill="#ecd979" style="fill: var(--color1, #ecd979)" d="M35.153 1.513h-1.098v-1.113h1.098v1.113z"></path>
<path fill="#ecd979" style="fill: var(--color1, #ecd979)" d="M34.055 1.513h-1.098v-1.113h1.098v1.113z"></path>
<path fill="#ecd979" style="fill: var(--color1, #ecd979)" d="M29.664 1.513h-1.098v-1.113h1.098v1.113z"></path>
<path fill="#ecd979" style="fill: var(--color1, #ecd979)" d="M28.566 1.513h-1.098v-1.113h1.098v1.113z"></path>
<path fill="#ecd979" style="fill: var(--color1, #ecd979)" d="M27.468 1.513h-1.098v-1.113h1.098v1.113z"></path>
<path fill="#ecd979" style="fill: var(--color1, #ecd979)" d="M20.881 1.513h-1.098v-1.113h1.098v1.113z"></path>
<path fill="#ecd979" style="fill: var(--color1, #ecd979)" d="M14.294 1.513h-1.098v-1.113h1.098v1.113z"></path>
<path fill="#ecd979" style="fill: var(--color1, #ecd979)" d="M7.707 1.513h-1.098v-1.113h1.098v1.113z"></path>
<path fill="#ecd979" style="fill: var(--color1, #ecd979)" d="M6.609 1.513h-1.098v-1.113h1.098v1.113z"></path>
<path fill="#ecd979" style="fill: var(--color1, #ecd979)" d="M5.511 1.513h-1.098v-1.113h1.098v1.113z"></path>
<path fill="#ecd979" style="fill: var(--color1, #ecd979)" d="M1.12 1.513h-1.098v-1.113h1.098v1.113z"></path>
</symbol>
</defs>
</svg>

<svg xmlns="http://www.w3.org/2000/svg" aria-hidden="true" style="position:absolute;width:0;height:0;overflow:hidden"><defs><symbol id="icon-logo" viewBox="0 0 35 32"><path fill="#ecd979" d="M15.392 11.53h-1.098v-1.113h1.098v1.113z" style="fill:var(--color1, #ecd979)"/><path fill="#ecd979" d="M14.294 11.53h-1.098v-1.113h1.098v1.113zM8.804 11.53H7.706v-1.113h1.098v1.113z" style="fill:var(--color1, #ecd979)"/><path fill="#ecd979" d="M7.707 11.53H6.609v-1.113h1.098v1.113zM6.609 11.53H5.511v-1.113h1.098v1.113zM28.566 10.417h-1.098V9.304h1.098v1.113zM27.468 10.417H26.37V9.304h1.098v1.113zM19.783 10.417h-1.098V9.304h1.098v1.113zM18.685 10.417h-1.098V9.304h1.098v1.113zM16.49 10.417h-1.098V9.304h1.098v1.113z" style="fill:var(--color1, #ecd979)"/><path fill="#ecd979" d="M15.392 10.417h-1.098V9.304h1.098v1.113zM7.707 10.417H6.609V9.304h1.098v1.113zM6.609 10.417H5.511V9.304h1.098v1.113zM28.566 9.304h-1.098V8.191h1.098v1.113zM18.685 9.304h-1.098V8.191h1.098v1.113zM16.49 9.304h-1.098V8.191h1.098v1.113zM6.609 9.304H5.511V8.191h1.098v1.113zM34.055 8.191h-1.098V7.078h1.098v1.113zM1.12 8.191H.022V7.078H1.12v1.113zM34.055 7.078h-1.098V5.965h1.098v1.113zM32.957 7.078h-1.098V5.965h1.098v1.113zM23.076 7.078h-1.098V5.965h1.098v1.113z" style="fill:var(--color1, #ecd979)"/><path fill="#ecd979" d="M21.979 7.078h-1.098V5.965h1.098v1.113zM20.881 7.078h-1.098V5.965h1.098v1.113zM14.294 7.078h-1.098V5.965h1.098v1.113zM13.196 7.078h-1.098V5.965h1.098v1.113z" style="fill:var(--color1, #ecd979)"/><path fill="#ecd979" d="M12.098 7.078H11V5.965h1.098v1.113zM2.217 7.078H1.119V5.965h1.098v1.113z" style="fill:var(--color1, #ecd979)"/><path fill="#ecd979" d="M1.12 7.078H.022V5.965H1.12v1.113zM34.055 5.965h-1.098V4.852h1.098v1.113zM32.957 5.965h-1.098V4.852h1.098v1.113zM31.859 5.965h-1.098V4.852h1.098v1.113zM24.174 5.965h-1.098V4.852h1.098v1.113zM23.076 5.965h-1.098V4.852h1.098v1.113z" style="fill:var(--color1, #ecd979)"/><path fill="#ecd979" d="M21.979 5.965h-1.098V4.852h1.098v1.113zM18.685 5.965h-1.098V4.852h1.098v1.113zM16.49 5.965h-1.098V4.852h1.098v1.113zM13.196 5.965h-1.098V4.852h1.098v1.113z" style="fill:var(--color1, #ecd979)"/><path fill="#ecd979" d="M12.098 5.965H11V4.852h1.098v1.113zM11 5.965H9.902V4.852H11v1.113zM3.315 5.965H2.217V4.852h1.098v1.113zM2.217 5.965H1.119V4.852h1.098v1.113z" style="fill:var(--color1, #ecd979)"/><path fill="#ecd979" d="M1.12 5.965H.022V4.852H1.12v1.113zM32.957 4.852h-1.098V3.739h1.098v1.113zM31.859 4.852h-1.098V3.739h1.098v1.113z" style="fill:var(--color1, #ecd979)"/><path fill="#ecd979" d="M30.762 4.852h-1.098V3.739h1.098v1.113zM25.272 4.852h-1.098V3.739h1.098v1.113zM24.174 4.852h-1.098V3.739h1.098v1.113zM23.076 4.852h-1.098V3.739h1.098v1.113zM19.783 4.852h-1.098V3.739h1.098v1.113zM18.685 4.852h-1.098V3.739h1.098v1.113zM16.49 4.852h-1.098V3.739h1.098v1.113z" style="fill:var(--color1, #ecd979)"/><path fill="#ecd979" d="M15.392 4.852h-1.098V3.739h1.098v1.113zM12.098 4.852H11V3.739h1.098v1.113zM11 4.852H9.902V3.739H11v1.113z" style="fill:var(--color1, #ecd979)"/><path fill="#ecd979" d="M9.903 4.852H8.805V3.739h1.098v1.113zM4.413 4.852H3.315V3.739h1.098v1.113z" style="fill:var(--color1, #ecd979)"/><path fill="#ecd979" d="M3.315 4.852H2.217V3.739h1.098v1.113zM2.217 4.852H1.119V3.739h1.098v1.113zM31.859 3.739h-1.098V2.626h1.098v1.113z" style="fill:var(--color1, #ecd979)"/><path fill="#ecd979" d="M30.762 3.739h-1.098V2.626h1.098v1.113zM29.664 3.739h-1.098V2.626h1.098v1.113zM20.881 3.739h-1.098V2.626h1.098v1.113zM19.783 3.739h-1.098V2.626h1.098v1.113zM18.685 3.739h-1.098V2.626h1.098v1.113zM16.49 3.739h-1.098V2.626h1.098v1.113z" style="fill:var(--color1, #ecd979)"/><path fill="#ecd979" d="M15.392 3.739h-1.098V2.626h1.098v1.113z" style="fill:var(--color1, #ecd979)"/><path fill="#ecd979" d="M14.294 3.739h-1.098V2.626h1.098v1.113zM5.511 3.739H4.413V2.626h1.098v1.113zM4.413 3.739H3.315V2.626h1.098v1.113z" style="fill:var(--color1, #ecd979)"/><path fill="#ecd979" d="M3.315 3.739H2.217V2.626h1.098v1.113zM35.153 2.626h-1.098V1.513h1.098v1.113zM30.762 2.626h-1.098V1.513h1.098v1.113zM29.664 2.626h-1.098V1.513h1.098v1.113zM28.566 2.626h-1.098V1.513h1.098v1.113zM20.881 2.626h-1.098V1.513h1.098v1.113zM19.783 2.626h-1.098V1.513h1.098v1.113zM15.392 2.626h-1.098V1.513h1.098v1.113z" style="fill:var(--color1, #ecd979)"/><path fill="#ecd979" d="M14.294 2.626h-1.098V1.513h1.098v1.113zM6.609 2.626H5.511V1.513h1.098v1.113zM5.511 2.626H4.413V1.513h1.098v1.113zM4.413 2.626H3.315V1.513h1.098v1.113zM35.153 1.513h-1.098V.4h1.098v1.113zM34.055 1.513h-1.098V.4h1.098v1.113zM29.664 1.513h-1.098V.4h1.098v1.113zM28.566 1.513h-1.098V.4h1.098v1.113zM27.468 1.513H26.37V.4h1.098v1.113zM20.881 1.513h-1.098V.4h1.098v1.113zM14.294 1.513h-1.098V.4h1.098v1.113zM7.707 1.513H6.609V.4h1.098v1.113zM6.609 1.513H5.511V.4h1.098v1.113zM5.511 1.513H4.413V.4h1.098v1.113zM1.12 1.513H.022V.4H1.12v1.113z" style="fill:var(--color1, #ecd979)"/></symbol></defs></svg>
